!!!!SEGMENT: pl-kk--kk-i-67--005_anonim--missa-agnus-dei.krn
!!!cenid: 17xx:2271
!!!COM: Anonim
!!!COM-rismid: pe30004985
!!!CDT:
!!!CNT:
!!!OPR: Missa
!!!OTL: Agnus Dei
!!!OMV: 005
!!!PDT:
!!!AGN: Sacred; Mass
!!!SMS-siglum: PL-Kk
!!!SMS-shelfmark: Kk.I.67
!!!SMS-shelfwork: 001-005 M
!!!SMS-variant:
!!!SMS-altvar:
!!!NIFC-rismid: 1001154623
!!!URL-scan: http://repozytorium.nifc.pl/skany/pl-kk-nut--i-67
!!!ONB-nifc: UWAGA: części Mszy: 1. Kyrie, 2. Et in terra, 3. Credo, 4. Sanctus, 5. Agnus Dei, 6. Dona nobis
!!!AIN: 1 alto 1 empty 1 tenor 1 vox
!!!key:
**kern	**text	**dynam	**kern	**text	**dynam	**kern	**text	**dynam	**kern	**text	**dynam
*part4	*part4	*part4	*part3	*part3	*part3	*part2	*part2	*part2	*part1	*part1	*part1
*staff4	*staff4	*	*staff3	*staff3	*	*staff2	*staff2	*staff2	*staff1	*staff1	*staff1
*Iempty	*	*	*Itenor	*	*	*Ialto	*	*	*Ivox	*	*
*I"Baſso	*	*	*I"Tenore	*	*	*I"Alto	*	*	*I"Canto	*	*
*I'B	*	*	*I'T	*	*	*I'A	*	*	*I'C	*	*
*clefF4	*	*	*clefC4	*	*	*clefC3	*	*	*clefC1	*	*
*k[]	*	*	*k[]	*	*	*k[]	*	*	*k[]	*	*
*C:	*	*	*C:	*	*	*C:	*	*	*C:	*	*
*M2/2	*	*	*M2/2	*	*	*M2/2	*	*	*M2/2	*	*
*met(c|)	*	*	*met(c|)	*	*	*met(c|)	*	*	*met(c|)	*	*
=1	=1	=1	=1	=1	=1	=1	=1	=1	=1	=1	=1
!LO:TX:a:t=andte	!	!	!LO:TX:a:t=ande	!	!	!	!	!	!	!	!
2C/	A-	.	2.G/	A-	.	8g\L	A-	.	8ee\L	A-	.
.	.	.	.	.	.	8f\	.	.	8dd\	.	.
.	.	.	.	.	.	8e\	.	.	8cc\	.	.
.	.	.	.	.	.	8f\J	.	.	8dd\J	.	.
4E/	.	.	.	.	.	4g\	.	.	4ee\	-gnus	.
4C/	-gnus	.	4G/	-gnus	.	8f\L	-gnus	.	8dd\L	.	.
.	.	.	.	.	.	8e\J	.	.	8cc\J	.	.
=2	=2	=2	=2	=2	=2	=2	=2	=2	=2	=2	=2
4G\	De-	.	4G/	De-	.	8e\L	De-	.	8cc\L	De-	.
.	.	.	.	.	.	8d\J	.	.	8b\J	.	.
4GG/	-i	.	4G/	-i	.	4d\	-i	.	4b\	-i	.
4r	.	.	4r	.	.	4r	.	.	4r	.	.
8GG/L	qui	.	4d\	qui	.	4g\	qui	.	4ff\	qui	.
8BB/J	.	.	.	.	.	.	.	.	.	.	.
=3	=3	=3	=3	=3	=3	=3	=3	=3	=3	=3	=3
8BB/L	tol-	.	8d\L	tol-	.	4g\	tol-	.	8ff\L	tol-	.
8C/J	.	.	8c\J	.	.	.	.	.	8ee\J	.	.
4C/	-lis	.	4c\	-lis	.	4g\	-lis	.	4ee\	-lis	.
4r	.	.	4r	.	.	4r	.	.	4r	.	.
8GG/L	qui	.	8B\L	qui	.	4g\	qui	.	8dd\L	qui	.
8BB/J	.	.	8d\J	.	.	.	.	.	8ff\J	.	.
=4	=4	=4	=4	=4	=4	=4	=4	=4	=4	=4	=4
8BB/L	tol-	.	8d\L	tol-	.	4g\	tol-	.	8ff\L	tol-	.
8C/J	.	.	8c\J	.	.	.	.	.	8ee\J	.	.
4C/	-lis	.	4c\	-lis	.	4g\	-lis	.	4ee\	-lis	.
4r	.	.	4r	.	.	4r	.	.	4r	.	.
4C/	pec-	.	4c\	pec-	.	4g\	pec-	.	4ee\	pec-	.
=5	=5	=5	=5	=5	=5	=5	=5	=5	=5	=5	=5
*	*	*	*2\right	*	*	*	*	*	*	*	*
2C/	-ca-	.	2c\	-ca-	.	4g\	-ca-	.	4ee\	-ca-	.
.	.	.	.	.	.	8a\L	.	.	8ff\L	.	.
.	.	.	.	.	.	8g\J	.	.	8ee\J	.	.
!	!	!	!	!	!	!	!	!	!LO:LB:g=original	!	!
=-	=-	=-	=-	=-	=-	=-	=-	=-	=-	=-	=-
!	!	!	!	!	!	!LO:N:vis=8	!	!	!	!	!
4BB/	.	.	4G/	.	.	4f\	.	.	4dd\	.	.
4C/	-ta	.	4G/	-ta	.	4e\	-ta	.	4cc\	-ta	.
!LO:LB:g=original	!	!	!LO:LB:g=original	!	!	!LO:LB:g=original	!	!	!	!	!
=6	=6	=6	=6	=6	=6	=6	=6	=6	=6	=6	=6
4G\	mun-	.	4G/	mun-	.	4e\	mun-	.	4cc\	mun-	.
4GG/	-di	.	4G/	-di	.	4d\	-di	.	4b\	-di	.
2r	.	.	2r	.	.	2r	.	.	2r	.	.
=7	=7	=7	=7	=7	=7	=7	=7	=7	=7	=7	=7
!	!	!LO:DY:a:rj	!	!	!LO:DY:a:rj	!	!	!LO:DY:a:rj	!	!	!LO:DY:a:rj
2C/	a-	p	2.G/	A-	p	8g\L	A-	p	8ee\L	A-	p
.	.	.	.	.	.	8f\	.	.	8dd\	.	.
.	.	.	.	.	.	8e\	.	.	8cc\	.	.
.	.	.	.	.	.	8f\J	.	.	8dd\J	.	.
4E/	.	.	.	.	.	4g\	.	.	4ee\	.	.
4C/	-gnus	.	4G/	-gnus	.	8f\L	-gnus	.	8dd\L	-gnus	.
.	.	.	.	.	.	8e\J	.	.	8cc\J	.	.
=8	=8	=8	=8	=8	=8	=8	=8	=8	=8	=8	=8
4G\	De-	.	4G/	De-	.	8e\L	De-	.	8cc\L	De-	.
.	.	.	.	.	.	8d\J	.	.	8b\J	.	.
4GG/	-i	.	4G/	-i	.	4d\	-i	.	4b\	-i	.
4r	.	.	4r	.	.	4r	.	.	4r	.	.
8GG/L	qui	.	4d\	qui	.	4g\	qui	.	4ff\	qui	.
8BB/J	.	.	.	.	.	.	.	.	.	.	.
=9	=9	=9	=9	=9	=9	=9	=9	=9	=9	=9	=9
8BB/L	tol-	.	8d\L	tol-	.	4g\	tol-	.	8ff\L	tol-	.
8C/J	.	.	8c\J	.	.	.	.	.	8ee\J	.	.
4C/	-lis	.	4c\	-lis	.	4g\	-lis	.	4ee\	-lis	.
4r	.	.	4r	.	.	4r	.	.	4r	.	.
8GG/L	qui	.	8B\L	qui	.	4g\	qui	.	8dd\L	qui	.
8BB/J	.	.	8d\J	.	.	.	.	.	8ff\J	.	.
=10	=10	=10	=10	=10	=10	=10	=10	=10	=10	=10	=10
8BB/L	tol-	.	8d\L	tol-	.	4g\	tol-	.	8ff\L	tol-	.
8C/J	.	.	8c\J	.	.	.	.	.	8ee\J	.	.
4C/	-lis	.	4c\	-lis	.	4g\	-lis	.	4ee\	-lis	.
4r	.	.	4r	.	.	4r	.	.	4r	.	.
4C/	pec-	.	4c\	pec-	.	4g\	pec-	.	4ee\	pec-	.
!LO:LB:g=original	!	!	!	!	!	!	!	!	!LO:LB:g=original	!	!
=11	=11	=11	=11	=11	=11	=11	=11	=11	=11	=11	=11
2C/	-ca-	.	2c\	-ca-	.	4g\	-ca-	.	4ee\	-ca-	.
.	.	.	.	.	.	8a\L	.	.	8ff\L	.	.
.	.	.	.	.	.	8g\J	.	.	8ee\J	.	.
!	!	!	!	!	!	!LO:LB:g=original	!	!	!	!	!
=-	=-	=-	=-	=-	=-	=-	=-	=-	=-	=-	=-
4BB/	.	.	4G/	.	.	4f\	.	.	4dd\	.	.
4C/	-ta	.	4G/	-ta	.	4e\	-ta	.	4cc\	-ta	.
!	!	!	!LO:LB:g=original	!	!	!	!	!	!	!	!
=12	=12	=12	=12	=12	=12	=12	=12	=12	=12	=12	=12
4G\	mun-	.	4G/	mun-	.	4e\	mun-	.	4cc\	mun-	.
4GG/	-di	.	4G/	-di	.	4d\	-di	.	4b\	-di	.
4r	.	.	4r	.	.	4r	.	.	4r	.	.
!	!	!LO:DY:a:rj	!	!	!LO:DY:a:t=for	!	!	!	!	!	!LO:DY:a:t=fo
4G\	mi-	f	4B\	mi-	f	4g\	mi-	.	4cc\	mi-	f
=13	=13	=13	=13	=13	=13	=13	=13	=13	=13	=13	=13
*2\right	*	*	*	*	*	*2\right	*	*	*2\right	*	*
2A\	.	.	2c\	.	.	2f#X\	.	.	2dd\	.	.
2B\	-se-	.	2G/	-se-	.	2fn\	-se-	.	2dd\	-se-	.
=14	=14	=14	=14	=14	=14	=14	=14	=14	=14	=14	=14
4c\	-re-	.	2G/	-re-	.	2e\	-re-	.	2cc\	-re-	.
8G\L	.	.	.	.	.	.	.	.	.	.	.
8E\J	.	.	.	.	.	.	.	.	.	.	.
2C/	-re	.	2G/	-re	.	2e\	-re	.	2cc\	-re	.
=15	=15	=15	=15	=15	=15	=15	=15	=15	=15	=15	=15
2r	.	.	2r	.	.	2r	.	.	2r	.	.
2C/	mi-	.	2G/	mi-	.	2e\	mi-	.	2cc\	mi-	.
=16	=16	=16	=16	=16	=16	=16	=16	=16	=16	=16	=16
2D\	.	.	2d\	.	.	2f\	.	.	2b\	.	.
2E\	-se-	.	2c\	-se-	.	2g\	-se-	.	2b-X\	-se-	.
=17	=17	=17	=17	=17	=17	=17	=17	=17	=17	=17	=17
4F\	-re-	.	4c\	-re-	.	4f\	-re-	.	4a\	-re-	.
4F\	-re	.	4c\	-re	.	4f\	-re	.	4a\	-re	.
2D\	mi-	.	[>2A\	mi-	.	2f#X\	mi-	.	2dd\	mi-	.
!LO:LB:g=original	!	!	!	!	!	!LO:LB:g=original	!	!	!	!	!
=18	=18	=18	=18	=18	=18	=18	=18	=18	=18	=18	=18
2E\	.	.	2A\]	.	.	2g\	.	.	2cc#X\	.	.
2F#X\	-se-	.	2d\	-se-	.	2a\	-se-	.	2ccn\	-se-	.
!	!	!	!	!	!	!	!	!	!LO:LB:g=original	!	!
=19	=19	=19	=19	=19	=19	=19	=19	=19	=19	=19	=19
4G\	-re-	.	4d\	-re-	.	4g\	-re-	.	4b\	-re-	.
4GG/	-re	.	4d\	-re	.	4g\	-re	.	4b\	-re	.
2G\	mi-	.	2d\	mi-	.	2g\	mi-	.	2b\	mi-	.
!	!	!	!LO:LB:g=original	!	!	!	!	!	!	!	!
=20	=20	=20	=20	=20	=20	=20	=20	=20	=20	=20	=20
2A\	.	.	2d\	.	.	2f#X\	.	.	2cc\	.	.
2B\	-se-	.	2G/	-se-	.	2fn\	-se-	.	2dd\	-se-	.
=21	=21	=21	=21	=21	=21	=21	=21	=21	=21	=21	=21
4c\	-re-	.	4G/	-re-	.	4e\	-re-	.	4cc\	-re-	.
4G\	.	.	4B/	.	.	4f\	.	.	4dd\	.	.
4E\	.	.	2c\	-re	.	2g\	-re	.	2ee\	-re	.
4C\	-re	.	.	.	.	.	.	.	.	.	.
=22	=22	=22	=22	=22	=22	=22	=22	=22	=22	=22	=22
4F\	no-	.	2c\	no-	.	2a\	no-	.	1dd	no-	.
4D\	.	.	.	.	.	.	.	.	.	.	.
4G\	.	.	2B\	.	.	2g\	.	.	.	.	.
4GG/	.	.	.	.	.	.	.	.	.	.	.
=23	=23	=23	=23	=23	=23	=23	=23	=23	=23	=23	=23
2C/	-bis	.	2c\	-bis	.	2g\	-bis	.	2ee\	-bis	.
2G\	mi-	.	2d\	mi-	.	2g\	mi-	.	2b\	mi-	.
=24	=24	=24	=24	=24	=24	=24	=24	=24	=24	=24	=24
2A\	.	.	2d\	.	.	2f#X\	.	.	2cc\	.	.
2B\	-se-	.	2G/	-se-	.	2fn\	-se-	.	2dd\	-se-	.
=25	=25	=25	=25	=25	=25	=25	=25	=25	=25	=25	=25
4c\	-re-	.	4G/	-re-	.	4e\	-re-	.	4cc\	-re-	.
4G\	.	.	4B/	.	.	4f\	.	.	4dd\	.	.
4E\	.	.	2c\	-re	.	2g\	-re	.	2ee\	-re	.
4C\	-re	.	.	.	.	.	.	.	.	.	.
!LO:LB:g=original	!	!	!	!	!	!LO:LB:g=original	!	!	!	!	!
=26	=26	=26	=26	=26	=26	=26	=26	=26	=26	=26	=26
4F\	no-	.	2c\	no-	.	1g	no-	.	1dd	no-	.
4D\	.	.	.	.	.	.	.	.	.	.	.
4G\	.	.	2B\	.	.	.	.	.	.	.	.
4GG/	.	.	.	.	.	.	.	.	.	.	.
=27	=27	=27	=27	=27	=27	=27	=27	=27	=27	=27	=27
1C	-bis	.	1c	-bis	.	1g	-bis	.	1ee	-bis	.
!LO:LB:g=original	!	!	!LO:LB:g=original	!	!	!LO:LB:g=original	!	!	!LO:LB:g=original	!	!
=28||	=28||	=28||	=28||	=28||	=28||	=28||	=28||	=28||	=28||	=28||	=28||
*M2/2	*	*	*M2/2	*	*	*M2/2	*	*	*M2/2	*	*
*met(c|)	*	*	*met(c|)	*	*	*met(c|)	*	*	*met(c|)	*	*
!LO:TX:a:t=adagio Tarde	!	!	!LO:TX:a:t=adagio	!	!	!LO:TX:a:t=adagio	!	!	!LO:TX:a:t=adagio	!	!
4C\	A-	.	2.c\	A-	.	2.g\	A-	.	2.ee\	A-	.
4E\	.	.	.	.	.	.	.	.	.	.	.
4G\	-gnus	.	.	.	.	.	.	.	.	.	.
4c\	.	.	4c\	-gnus	.	4g\	-gnus	.	4ee\	-gnus	.
=29	=29	=29	=29	=29	=29	=29	=29	=29	=29	=29	=29
4B-X\	De-	.	2c\	De-	.	2g\	De-	.	2ee\	De-	.
4G\	.	.	.	.	.	.	.	.	.	.	.
4E\	-i	.	4c\	-i	.	4g\	-i	.	4ee\	-i	.
4C\	qui	.	4c\	qui	.	4g\	qui	.	4ee\	qui	.
=30	=30	=30	=30	=30	=30	=30	=30	=30	=30	=30	=30
4F\	tol-	.	4c\	tol-	.	4a\	tol-	.	4ff\	tol-	.
4F\	-lis	.	4c\	-lis	.	4a\	-lis	.	4ff\	-lis	.
4r	.	.	4r	.	.	4r	.	.	4r	.	.
4F\	pec-	.	4c\	pec-	.	4a\	pec-	.	4ff\	pec-	.
=31	=31	=31	=31	=31	=31	=31	=31	=31	=31	=31	=31
4C/	-ca-	.	4c\	-ca-	.	4g\	-ca-	.	4ee\	-ca-	.
4C/	-ta	.	4c\	-ta	.	4a\	-ta	.	4ff\	-ta	.
2C/	mun-	.	2e\	mun-	.	2b-X\	mun-	.	2gg\	mun-	.
=32	=32	=32	=32	=32	=32	=32	=32	=32	=32	=32	=32
2F\	-di	.	2c\	-di	.	2a\	-di	.	2ff\	-di	.
2r	.	.	2r	.	.	2r	.	.	2r	.	.
!LO:LB:g=original	!	!	!LO:LB:g=original	!	!	!LO:LB:g=original	!	!	!	!	!
=33	=33	=33	=33	=33	=33	=33	=33	=33	=33	=33	=33
4D\	A-	.	2.A\	A-	.	2.f#\	A-	.	2.dd\	A-	.
4F#X\	.	.	.	.	.	.	.	.	.	.	.
4A\	.	.	.	.	.	.	.	.	.	.	.
4d\	-gnus	.	4A\	-gnus	.	4f#\	-gnus	.	4dd\	-gnus	.
!	!	!	!	!	!	!	!	!	!LO:LB:g=original	!	!
=34	=34	=34	=34	=34	=34	=34	=34	=34	=34	=34	=34
!	!	!	!	!	!	!LO:SIC:v:s=2f#\	!	!	!	!	!
4cn\	De-	.	2A\	De-	.	2f\	De-	.	2dd\	De-	.
4A\	.	.	.	.	.	.	.	.	.	.	.
!	!	!	!	!	!	!LO:SIC:v:s=4f#\	!	!	!	!	!
4F#X\	-i	.	4A\	-i	.	4f\	-i	.	4dd\	-i	.
!	!	!	!	!	!	!LO:SIC:v:s=4f#\	!	!	!	!	!
4D\	qui	.	4A\	qui	.	4f\	qui	.	4dd\	qui	.
=35	=35	=35	=35	=35	=35	=35	=35	=35	=35	=35	=35
4G\	tol-	.	4Bn\	tol-	.	4g\	tol-	.	4dd\	tol-	.
4GG/	-lis	.	4B\	-lis	.	4g\	-lis	.	4dd\	-lis	.
4r	.	.	4r	.	.	4r	.	.	4r	.	.
4G\	pec-	.	4B\	pec-	.	4g\	pec-	.	4dd\	pec-	.
=36	=36	=36	=36	=36	=36	=36	=36	=36	=36	=36	=36
4D\	-ca-	.	4A\	-ca-	.	4f#X\	-ca-	.	4dd\	-ca-	.
4D\	-ta	.	4B\	-ta	.	4g\	-ta	.	4dd\	-ta	.
2D\	mun-	.	2c\	mun-	.	2a\	mun-	.	2dd\	mun-	.
=37	=37	=37	=37	=37	=37	=37	=37	=37	=37	=37	=37
2G\	-di	.	2B\	-di	.	2g\	-di	.	2dd\	-di	.
2G\	pec-	.	2B\	pec-	.	2g\	pec-	.	2dd\	pec-	.
=38	=38	=38	=38	=38	=38	=38	=38	=38	=38	=38	=38
2F#X\	-ca-	.	2c\	ca-	.	2a\	-ca-	.	2ee-X\	-ca-	.
2G\	-ta	.	2B\	-ta	.	2g\	-ta	.	2dd\	-ta	.
!LO:LB:g=original	!	!	!	!	!	!LO:LB:g=original	!	!	!	!	!
=39	=39	=39	=39	=39	=39	=39	=39	=39	=39	=39	=39
4c\	mun-	.	4A\	mun-	.	2f#X\	mun-	.	1ee	mun-	.
4A\	.	.	4c\	.	.	.	.	.	.	.	.
!	!	!	!LO:LB:g=original	!	!	!	!	!	!	!	!
=-	=-	=-	=-	=-	=-	=-	=-	=-	=-	=-	=-
4G\	.	.	4B\	.	.	4g\	.	.	.	.	.
4F#X\	.	.	4c\	.	.	4a\	.	.	.	.	.
=40	=40	=40	=40	=40	=40	=40	=40	=40	=40	=40	=40
!LO:TX:b:t=Seque Dona nobis	!	!	!	!	!	!LO:TX:b:t=Seque Dona nobis	!	!	!LO:TX:b:t=Seque\nDona nobis	!	!
1G;	-di	.	1B	-di	.	1g	-di	.	1dd	-di	.
!LO:LB:g=original	!	!	!	!	!	!LO:PB:g=original	!	!	!LO:PB:g=original	!	!
==	==	==	==	==	==	==	==	==	==	==	==
*-	*-	*-	*-	*-	*-	*-	*-	*-	*-	*-	*-
!!!system-decoration: [(s1,s2,s3,s4)]
!!!RDF**kern: < = below
!!!RDF**kern: > = above
!!!ENC: Marta Chmielewska
!!!END: 2021-08-06
!!!ENC: Andrzej Gręziak
!!!END: 2021-07-07
